X: 3
T: The Five Mile Chase
R: reel
M: 4/4
L: 1/8
K: Gmaj
|: G2 BG dGBG | FADA FADA | G2 BG dGBd |[1 egfa gedB :|[2 egfa g3 B ||G2BG dGBG | FADA FADA | G2BG dGBd | egfa g3B :|gd (3Bcd ed (3Bcd | gabg fgaf | gd (3Bcd ed (3Bcd |gabf g3 f | gabg fgaf | e3 d BABd | e3 f edBd | edfd gedB |]


Tune 458	Setting 458

